canopeum_frontend/src/assets/icons/site-visitors.svg

<svg width="24" height="24" viewBox="0 0 24 24" fill="none" xmlns="http://www.w3.org/2000/svg">
<mask id="mask0_1671_50764" style="mask-type:alpha" maskUnits="userSpaceOnUse" x="1" y="1" width="21" height="21">
<rect x="1" y="1" width="21" height="21" fill="#D9D9D9"/>
</mask>
<g mask="url(#mask0_1671_50764)">
<path d="M10.4057 11.0619L16.5963 4.87129C16.7713 4.69629 16.9755 4.60879 17.2088 4.60879C17.4421 4.60879 17.6463 4.69629 17.8213 4.87129C17.9963 5.04629 18.0838 5.25046 18.0838 5.48379C18.0838 5.71712 17.9963 5.92129 17.8213 6.09629L11.6525 12.2869L10.4057 11.0619ZM12.5713 13.2275L18.1275 7.64941C18.3025 7.47441 18.5103 7.38691 18.751 7.38691C18.9916 7.38691 19.1994 7.47441 19.3744 7.64941C19.5494 7.82441 19.6369 8.03223 19.6369 8.27285C19.6369 8.51348 19.5494 8.72129 19.3744 8.89629L13.8182 14.4525L12.5713 13.2275ZM5.61504 17.3838C4.28796 16.0567 3.62441 14.4598 3.62441 12.5932C3.62441 10.7265 4.28796 9.12962 5.61504 7.80254L8.24004 5.17754L9.53066 6.46816C9.63275 6.57025 9.72025 6.67598 9.79316 6.78535C9.86608 6.89473 9.939 7.00775 10.0119 7.12441L13.2494 3.86504C13.4244 3.69004 13.6322 3.60254 13.8729 3.60254C14.1135 3.60254 14.3213 3.69004 14.4963 3.86504C14.6713 4.04004 14.7588 4.24785 14.7588 4.48848C14.7588 4.7291 14.6713 4.93691 14.4963 5.11191L10.7119 8.89629L8.85254 10.7338L9.26816 11.1494C9.939 11.8202 10.2598 12.6223 10.2307 13.5557C10.2015 14.489 9.8442 15.2984 9.15879 15.9838L7.91191 14.7588C8.24733 14.4234 8.43327 14.026 8.46973 13.5666C8.50618 13.1072 8.35671 12.7098 8.02129 12.3744L6.99316 11.3682C6.81816 11.1932 6.73066 10.9854 6.73066 10.7447C6.73066 10.5041 6.81816 10.2963 6.99316 10.1213L8.24004 8.89629C8.41504 8.72129 8.50254 8.51348 8.50254 8.27285C8.50254 8.03223 8.41504 7.82441 8.24004 7.64941L6.84004 9.04941C5.84837 10.0411 5.35254 11.226 5.35254 12.6041C5.35254 13.9822 5.84837 15.1671 6.84004 16.1588C7.83171 17.1505 9.02025 17.6463 10.4057 17.6463C11.7911 17.6463 12.9796 17.1505 13.9713 16.1588L19.1994 10.9088C19.3744 10.7338 19.5822 10.6463 19.8228 10.6463C20.0635 10.6463 20.2713 10.7338 20.4463 10.9088C20.6213 11.0838 20.7088 11.2916 20.7088 11.5322C20.7088 11.7729 20.6213 11.9807 20.4463 12.1557L15.1963 17.3838C13.8692 18.7109 12.2723 19.3744 10.4057 19.3744C8.539 19.3744 6.94212 18.7109 5.61504 17.3838ZM15.8744 21.1463V19.3744C16.8369 19.3744 17.6609 19.0317 18.3463 18.3463C19.0317 17.6609 19.3744 16.8369 19.3744 15.8744H21.1463C21.1463 17.3327 20.6322 18.576 19.6041 19.6041C18.576 20.6322 17.3327 21.1463 15.8744 21.1463ZM1.85254 7.12441C1.85254 5.66608 2.3666 4.42285 3.39473 3.39473C4.42285 2.3666 5.66608 1.85254 7.12441 1.85254V3.62441C6.16191 3.62441 5.33796 3.96712 4.65254 4.65254C3.96712 5.33796 3.62441 6.16191 3.62441 7.12441H1.85254Z" fill="#007E51"/>
</g>
</svg>

<svg width="24" height="24" fill="none" xmlns="http://www.w3.org/2000/svg">
  <mask id="prefix__a" style="mask-type:alpha" maskUnits="userSpaceOnUse" x="1" y="1" width="21" height="21">
    <path fill="#D9D9D9" d="M1 1h21v21H1z" />
  </mask>
  <g mask="url(#prefix__a)">
    <path
      d="M10.406 11.062l6.19-6.19a.84.84 0 01.613-.263.84.84 0 01.612.262.84.84 0 01.263.613.84.84 0 01-.263.612l-6.169 6.19-1.246-1.224zm2.165 2.165l5.557-5.578a.852.852 0 01.623-.262c.24 0 .448.087.623.262a.852.852 0 01.263.624c0 .24-.088.448-.263.623l-5.556 5.556-1.247-1.225zm-6.956 4.157c-1.327-1.327-1.99-2.924-1.99-4.79 0-1.867.663-3.464 1.99-4.791L8.24 5.178l1.29 1.29c.103.102.19.208.263.317.073.11.146.223.219.34l3.237-3.26a.852.852 0 01.624-.262c.24 0 .448.087.623.262a.852.852 0 01.263.623c0 .241-.088.449-.263.624l-3.784 3.784-1.86 1.838.416.415c.671.671.992 1.473.963 2.407-.03.933-.387 1.742-1.072 2.428l-1.247-1.225c.335-.336.521-.733.558-1.192a1.454 1.454 0 00-.449-1.193l-1.028-1.006a.852.852 0 01-.262-.623c0-.24.087-.449.262-.624L8.24 8.896a.852.852 0 00.263-.623.852.852 0 00-.263-.624l-1.4 1.4c-.992.992-1.487 2.177-1.487 3.555 0 1.378.495 2.563 1.487 3.555.992.992 2.18 1.487 3.566 1.487 1.385 0 2.574-.495 3.565-1.487l5.228-5.25a.852.852 0 01.624-.263c.24 0 .448.088.623.263a.852.852 0 01.263.623c0 .24-.088.449-.263.624l-5.25 5.228c-1.327 1.327-2.924 1.99-4.79 1.99-1.867 0-3.464-.663-4.791-1.99zm10.26 3.762v-1.772c.962 0 1.786-.342 2.471-1.028.686-.685 1.028-1.51 1.028-2.472h1.772c0 1.459-.514 2.702-1.542 3.73s-2.271 1.542-3.73 1.542zM1.852 7.124c0-1.458.514-2.701 1.542-3.73 1.028-1.027 2.271-1.541 3.73-1.541v1.771c-.963 0-1.787.343-2.472 1.029-.686.685-1.029 1.509-1.029 2.471H1.853z"
      fill="#007E51" />
  </g>
</svg>
